square/instagram-alt.svg

<svg version="1.1" xmlns="http://www.w3.org/2000/svg" xmlns:xlink="http://www.w3.org/1999/xlink" viewBox="0 0 1024 1024">
	<path d="M712.704 459.776h58.368v285.696c0 14.336-11.264 25.6-25.6 25.6h-466.944c-14.336 0-25.6-11.264-25.6-25.6v-285.696h58.368c-4.096 16.384-7.168 33.792-7.168 52.224 0 114.688 93.184 207.872 207.872 207.872s207.872-93.184 207.872-207.872c0-18.432-2.048-35.84-7.168-52.224zM512 642.048c71.68 0 130.048-58.368 130.048-130.048s-58.368-130.048-130.048-130.048c-71.68 0-130.048 58.368-130.048 130.048s58.368 130.048 130.048 130.048zM745.472 251.904h-77.824c-14.336 0-25.6 11.264-25.6 25.6v77.824c0 14.336 11.264 25.6 25.6 25.6h77.824c14.336 0 25.6-11.264 25.6-25.6v-77.824c1.024-13.312-11.264-25.6-25.6-25.6zM1024 0v1024h-1024v-1024h1024zM849.92 251.904c0-43.008-34.816-77.824-77.824-77.824h-520.192c-43.008 0-77.824 34.816-77.824 77.824v520.192c0 43.008 34.816 77.824 77.824 77.824h520.192c43.008 0 77.824-34.816 77.824-77.824v-520.192z"></path>
</svg>

<svg xmlns="http://www.w3.org/2000/svg" viewBox="0 0 1024 1024"><path d="M712.704 459.776h58.368v285.696c0 14.336-11.264 25.6-25.6 25.6H278.528c-14.336 0-25.6-11.264-25.6-25.6V459.776h58.368c-4.096 16.384-7.168 33.792-7.168 52.224 0 114.688 93.184 207.872 207.872 207.872S719.872 626.688 719.872 512c0-18.432-2.048-35.84-7.168-52.224zM512 642.048c71.68 0 130.048-58.368 130.048-130.048S583.68 381.952 512 381.952 381.952 440.32 381.952 512 440.32 642.048 512 642.048zm233.472-390.144h-77.824c-14.336 0-25.6 11.264-25.6 25.6v77.824c0 14.336 11.264 25.6 25.6 25.6h77.824c14.336 0 25.6-11.264 25.6-25.6v-77.824c1.024-13.312-11.264-25.6-25.6-25.6zM1024 0v1024H0V0h1024zM849.92 251.904c0-43.008-34.816-77.824-77.824-77.824H251.904c-43.008 0-77.824 34.816-77.824 77.824v520.192c0 43.008 34.816 77.824 77.824 77.824h520.192c43.008 0 77.824-34.816 77.824-77.824V251.904z"/></svg>
